X:1
P: The Boys of the Town
C: as played by Morgan MacQuarrie "Loch Ban"
C: arr. T. Traub 11-6-03
R: Jig
M: 6/8
K: G
L: 1/8
|: D|"G"GAG GBd|"G"edB dBA|"G"GAG GBd|"C"edB "D"AFD|"G"GAG GBd|"G"edB gfg|"C"edB "D"AGA|"G"BGG G2 :|
|: B|"G"def gfg|"D"afd "C"edB|"G"def gfg|"D"afd e2 f|"G"def gbb|"D"faa eff|"C"edB "D"AGA|"G"BGG G2 :|
